!!!!SEGMENT: Wil1006b-Missa_Osculetur_me-Gloria
!!!id: Wil1006b
!!!AGN: Mass; Gloria
!!!voices: 4
!!!OPR: Missa Osculetur me
!!!COM: Adrian Willaert
!!!OTL: Gloria
**kern	**kern	**kern	**kern
*part4	*part3	*part2	*part1
*staff4	*staff3	*staff2	*staff1
*I"Bassus	*I"Tenor	*I"Altus	*I"Superius
*I'B	*I'T	*I'A	*I'S
*clefF4	*clefGv2	*clefG2	*clefG2
*k[b-]	*k[b-]	*k[b-]	*k[b-]
*F:	*F:	*F:	*F:
*M2/1	*M2/1	*M2/1	*M2/1
*met(C|)	*met(C|)	*met(C|)	*met(C|)
=1	=1	=1	=1
!!section: Et in terra
!!!OMD: Et in terra
0r	0r	1.f	0r
.	.	2f	.
=2	=2	=2	=2
0r	0r	1g	0r
.	.	2f	.
.	.	[2f	.
=3	=3	=3	=3
0r	0r	2f]	1.cc
.	.	4e	.
.	.	4d	.
.	.	2c	.
.	.	2f	2cc
=4	=4	=4	=4
0r	0r	2f	1dd
.	.	2g	.
.	.	2.a	2cc
.	.	.	[2cc
.	.	8gL	.
.	.	8fJ	.
=5	=5	=5	=5
0r	0r	2e	2cc]
.	.	1f	4b-y
.	.	.	4a
.	.	.	2g
.	.	2e	2cc
=6	=6	=6	=6
0r	0r	2.f	2cc
.	.	.	2dd
.	.	8eL	.
.	.	8dJ	.
.	.	2c	2.ee-i
.	.	[2g	.
.	.	.	8ddL
.	.	.	8ccJ
=7	=7	=7	=7
0r	0r	2g]	2b-y
.	.	4f	1cc
.	.	4e	.
.	.	1d	.
.	.	.	2bnXi
=8	=8	=8	=8
0r	0r	1c	2.cc
.	.	.	8b-yL
.	.	.	8aJ
.	.	2r	4g
.	.	.	4a
.	.	2g	4b-y
.	.	.	4cc
=9	=9	=9	=9
0r	0r	2f	2dd
.	.	1g	2b-y
.	.	.	1a
.	.	2f	.
=10	=10	=10	=10
0r	0r	4e	1g
.	.	4d	.
.	.	4e	.
.	.	4f	.
.	.	2g	2r
.	.	[2f	2dd
=11	=11	=11	=11
0r	0r	2f]	2cc
.	.	4e	1dd
.	.	4d	.
.	.	1e	.
.	.	.	2cc
=12	=12	=12	=12
1r	0r	2d	4b-y
.	.	.	4a
.	.	2g	4b-y
.	.	.	4cc
1F	.	4f	2dd
.	.	4e	.
.	.	4f	[2cc
.	.	4g	.
=13	=13	=13	=13
1F	0r	2a	2cc]
.	.	1f	4b-y
.	.	.	4a
1G	.	.	1b-y
.	.	2e	.
=14	=14	=14	=14
1.F	1r	1f	2a
.	.	.	2dd
.	1c	2.a	4cc
.	.	.	4b-y
4E	.	.	4cc
4D	.	8gL	4dd
.	.	8fJ	.
=15	=15	=15	=15
2C	1c	2g	2ee
1F	.	1a	2.cc
.	1d	.	.
.	.	.	8bnXiL
.	.	.	8aJ
2G	.	4g	2bni
.	.	4f	.
=16	=16	=16	=16
2.A	1.c	2.e	0cc
8GL	.	4f	.
8FJ	.	.	.
2E	.	2g	.
[2F	4B-y	2c	.
.	4A	.	.
=17	=17	=17	=17
2F]	2G	1g	0r
2E	1c	.	.
2.F	.	1a	.
.	2d	.	.
8EL	.	.	.
8DJ	.	.	.
=18	=18	=18	=18
2C	2.e-i	0r	1r
1G	.	.	.
.	8dL	.	.
.	8cJ	.	.
.	2B-y	.	2r
4F	[2c	.	2cc
4E	.	.	.
=19	=19	=19	=19
1D	2c]	2r	1ff
.	2BnXi	2d	.
1C	1c	1g	2.ee
.	.	.	4dd
=20	=20	=20	=20
1F	1r	2.a	4cc
.	.	.	4b-y
.	.	.	2.cc
.	.	4g	.
1r	2r	2f	.
.	.	.	4b-y
.	2c	2e	2g
=21	=21	=21	=21
2r	1f	2d	1a
2F	.	1c	.
1c	2.e	.	1g
.	.	2g	.
.	4d	.	.
=22	=22	=22	=22
2.A	4c	2f	2.cc
.	4B-y	.	.
.	1c	2e	.
4G	.	.	4b-y
2F	.	4f	2a
.	.	4e	.
2G	2B-y	4d	[2g
.	.	4c	.
=23	=23	=23	=23
1D	1A	1d	2g]
.	.	.	2f#i
2r	1G	1B-y	2.g
2d	.	.	.
.	.	.	4fny
=24	=24	=24	=24
2c	1r	2r	2e
2B-y	.	2g	2d
1c	2r	2a	1e
.	2g	2g	.
=25	=25	=25	=25
1A	2f	1cc	2r
.	2e	.	2cc
1F	1f	1a	2dd
.	.	.	2cc
=26	=26	=26	=26
1r	1d	1f	1ff
2r	2.g	1r	1ee
2c	.	.	.
.	4f	.	.
=27	=27	=27	=27
2c	2e	2r	1cc
2A	4d	2f	.
.	4c	.	.
1B-y	2d	2g	1r
.	[2f	2f	.
=28	=28	=28	=28
1G	2f]	1b-y	0r
.	2e	.	.
1F	1f	1a	.
=29	=29	=29	=29
1.B-y	1r	1f	1.dd
.	[1d	[1f	.
2B-y	.	.	2dd
=30	=30	=30	=30
1B-y	2d]	2f]	2dd
.	2d	2f	2.ff
1B-y	1d	1f	.
.	.	.	4ee
.	.	.	[2dd
=31	=31	=31	=31
2A	2e	2a	4dd]
.	.	.	4cc
2F	2f	2a	1cc
1G	2d	2.g	.
.	[2e	.	2bnXi
.	.	4f	.
=32	=32	=32	=32
1C	4e]	2g	1cc
.	4d	.	.
.	1c	1a	.
1D	.	.	2f
.	2BnXi	4g	[2ff
.	.	4f	.
=33	=33	=33	=33
1C	1c	2a	2ff]
.	.	1g	4ee
.	.	.	4dd
1r	2r	.	2ee
.	2G	[2b-y	[2dd
=34	=34	=34	=34
0r	2B-y	4b-]	2dd]
.	.	4a	.
.	2c	1g	4cc
.	.	.	4b-y
.	1d	.	1a
.	.	2f#i	.
=35	=35	=35	=35
2r	1e	1g	0g
1c	.	.	.
.	2.d	1G	.
2B-y	.	.	.
.	4e	.	.
=36	=36	=36	=36
2A	2f	0r	0r
2B-y	2d	.	.
2G	2e	.	.
2F	[2d	.	.
=37	=37	=37	=37
1.G	4d]	0r	2r
.	4c	.	.
.	4B-y	.	2g
.	4A	.	.
.	2G	.	2b-y
4F	[2c	.	2cc
4E	.	.	.
=38	=38	=38	=38
2F	2c]	1r	1dd
2G	2BnXi	.	.
1C	1c	2r	1ee
.	.	2G	.
=39	=39	=39	=39
1r	1G	4G	2.dd
.	.	4A	.
.	.	4B-y	.
.	.	4c	4ee
2r	1r	2d	2ff
2G	.	[2B-y	2dd
=40	=40	=40	=40
2G	1r	4B-]	2ee
.	.	4c	.
2G	.	4d	2.dd
.	.	4e	.
2D	2r	2f	.
.	.	.	4cc
[2G	2g	2d	4b-y
.	.	.	4a
=41	=41	=41	=41
2G]	2g	1e	2g
2E	2g	.	1cc
2F	2a	1d	.
2G	[2g	.	2bnXi
=42	=42	=42	=42
2C	2g]	2r	1cc
2.c	2e	2c	.
.	2f	1d	1r
4B-y	.	.	.
2B-y	2g	.	.
=43	=43	=43	=43
2A	2c	2e	1r
2B-y	1f	1d	.
1G	.	.	2r
.	2e	2B-y	2g
=44	=44	=44	=44
1F	2.f	2c	1a
.	.	2d	.
.	4e	.	.
2r	2d	2G	2b-y
2F	2f	[2c	[2a
=45	=45	=45	=45
2A	2e	2c]	2a]
2A	2c	4B-y	2f
.	.	4A	.
2G	2.d	2B-y	2g
2F	.	2A	2a
.	4c	.	.
=46	=46	=46	=46
2G	2B-y	2d	2d
2C	2c	2e	1g
1D	2A	1d	.
.	2A	.	2f#i
=47	=47	=47	=47
0G	1G	2.B-y	2g
.	.	.	1b-y
.	.	4c	.
.	2r	4d	.
.	.	4G	.
.	[2d	[2g	4a
.	.	.	4g
=48	=48	=48	=48
1r	2d]	2g]	1a
.	2d	2f#i	.
2r	2e	1g	1r
[2G	[2d	.	.
=49	=49	=49	=49
2G]	2d]	0r	0r
2G	2B-y	.	.
2A	2c	.	.
[2G	2d	.	.
=50	=50	=50	=50
2G]	2G	1r	2r
2E	1c	.	2g
2F	.	2r	2dd
2G	2BnXi	2g	2dd
=51	=51	=51	=51
1C	1c	2g	1ee
.	.	2a	.
1r	[1G	2b-y	2.dd
.	.	[2g	.
.	.	.	4cc
=52	=52	=52	=52
1r	1G]	4g]	4b-y
.	.	4f	4a
.	.	4d	2b-y
.	.	4e	.
1F	1r	2f	4a
.	.	.	4g
.	.	2c	[2cc
=53	=53	=53	=53
2F	1r	2d	2cc]
2G	.	2d	2bnXi
1A	2r	1c	1cc
.	[2c	.	.
=54	=54	=54	=54
2.F	2c]	1f	1a
.	2c	.	.
4E	.	.	.
2D	2d	2f	2r
2C	2e	2g	[2cc
=55	=55	=55	=55
1F	2A	1.a	2cc]
.	2.c	.	2cc
1D	.	.	1dd
.	4BnXi	.	.
.	4Bni	2f	.
.	4A	.	.
=56	=56	=56	=56
2C	2.c	2.g	1.ee
1c	.	.	.
.	4d	4f	.
.	2e	2g	.
4B-y	2f	2a	2cc
4A	.	.	.
=57	=57	=57	=57
2G	2B-y	2b-y	2dd
2A	1f	2a	2cc
2B-y	.	1g	2dd
2c	2e	.	2ee
=58	=58	=58	=58
0F	2.f	1a	1cc
.	8eL	.	.
.	8dJ	.	.
.	[1c	1f	2r
.	.	.	2a
=59	=59	=59	=59
1A	1c]	2r	1cc
.	.	2e	.
2G	1r	1g	2.b-y
[2B-y	.	.	.
.	.	.	4cc
=60	=60	=60	=60
4B-]	2r	1f	2dd
4A	.	.	.
4F	2A	.	2.cc
4G	.	.	.
2A	1c	2e	.
.	.	.	4b-y
2F	.	2f	[2a
=61	=61	=61	=61
1G	1B-y	2.d	2a]
.	.	.	2g
.	.	4e	.
2.D	[1A	2f	[1a
.	.	2d	.
4E	.	.	.
=62	=62	=62	=62
2F	1A]	2c	2a]
2D	.	1f	4g
.	.	.	4f
1C	[1c	.	1g
.	.	2e	.
=63	=63	=63	=63
1F	2c]	1f	1a
.	4B-y	.	.
.	4A	.	.
2E	2c	2r	1r
2D	2d	[2f	.
=64	=64	=64	=64
1A	1c	2f]	1cc
.	.	2e	.
2D	1r	2d	2b-y
[2F	.	[2a	2a
=65	=65	=65	=65
2F]	1c	2a]	1cc
2E	.	2.g	.
1D	2B-y	.	2f
.	.	4f	.
.	2A	[2f	[2a
=66	=66	=66	=66
1C	1c	2f]	2a]
.	.	2e	2g
2r	1F	2.a	1f
[2c	.	.	.
.	.	8gL	.
.	.	8fJ	.
=67	=67	=67	=67
2c]	2r	2g	1e
2A	2c	2a	.
2B-y	2d	2f	2r
2c	[2c	2e	2g
=68	=68	=68	=68
2F	4c]	2r	2a
.	4d	.	.
1c	4e	1e	2g
.	4f	.	.
.	2g	.	1cc
2A	2a	2f	.
=69	=69	=69	=69
2B-y	2g	2d	2b-y
2F	2f	1c	2a
1G	1d	.	[1g
.	.	2BnXi	.
=70	=70	=70	=70
2C	1e	1c	1g]
1c	.	.	.
.	2r	1G	1dd
2B-y	2d	.	.
=71	=71	=71	=71
2c	2e	1g	2cc
2G	1g	.	2b-y
1A	.	1r	2.cc
.	2f#i	.	.
.	.	.	4dd
=72	=72	=72	=72
2.G	2.g	0r	2ee-i
.	.	.	1dd
4A	8fL	.	.
.	8eJ	.	.
2B-y	2d	.	.
2A	[2f	.	2cc
=73	=73	=73	=73
1G	2f]	0r	1b-y
.	2e	.	.
[1F	2.f	.	2a
.	.	.	[2cc
.	8eL	.	.
.	8dJ	.	.
=74	=74	=74	=74
1F]	1c	2r	2cc]
.	.	1f	4b-y
.	.	.	4a
1c	2r	.	2.g
.	[2g	2e	.
.	.	.	4a
=75	=75	=75	=75
2B-y	2g]	2d	2b-y
2A	2f	2c	2cc
2G	2.g	2e	1b-y
[2B-y	.	[2d	.
.	8fL	.	.
.	8eJ	.	.
=76	=76	=76	=76
2B-]	2d	4d]	2r
.	.	4c	.
2A	2c	2f	1cc
1G	1g	2e	.
.	.	[2d	2b-y
=77	=77	=77	=77
2r	2f	4d]	2a
.	.	4A	.
2C	2e	2c	2g
2G	2d	4B-y	2b-y
.	.	4G	.
2D	[2f	2d	[2a
=78	=78	=78	=78
2F	2f]	2c	4a]
.	.	.	4g
2C	2e	2.g	1cc
1G	1d	.	.
.	.	4f	.
.	.	2d	2bnXi
=79	=79	=79	=79
0Cl	0cl	0el	0ccl
=80||	=80||	=80||	=80||
*M2/1	*M2/1	*M2/1	*M2/1
*met(C|)	*met(C|)	*met(C|)	*met(C|)
!!section: Qui tollis
!!!OMD: Qui tollis
0r	0r	1f	1r
.	.	1f	1cc
=81	=81	=81	=81
0r	0r	1a	1cc
.	.	1b-y	1dd
=82	=82	=82	=82
1r	0r	2b-y	2.ff
.	.	2a	.
.	.	.	4ee
2r	.	2.f	2dd
2F	.	.	2cc
.	.	4g	.
=83	=83	=83	=83
1F	1c	0a	1ff
1A	1c	.	1ee
=84	=84	=84	=84
1B-y	1d	1f	2r
.	.	.	2dd
2B-y	1f	2d	2dd
2A	.	2a	2cc
=85	=85	=85	=85
1B-y	2f	2.f	2dd
.	2d	.	2.ff
.	.	4g	.
2.F	1f	1a	.
.	.	.	4ee
.	.	.	[2dd
4G	.	.	.
=86	=86	=86	=86
1A	1e	2r	2dd]
.	.	1a	2cc#i
2r	2.d	.	1dd
[2B-y	.	2f	.
.	4e	.	.
=87	=87	=87	=87
2B-]	4f	1b-y	1.dd
.	4d	.	.
2G	1g	.	.
1d	.	2a	.
.	2f	[2b-y	2dd
=88	=88	=88	=88
2B-y	1g	2b-]	2dd
1c	.	2g	2.ee
.	2e	1a	.
.	.	.	4dd
2F	2f	.	[2cc
=89	=89	=89	=89
1G	1d	0g	2cc]
.	.	.	2bnXi
2.c	2.e	.	1cc
4B-y	4d	.	.
=90	=90	=90	=90
4A	2e	0a	2r
4G	.	.	.
1F	2f	.	2cc
.	[1c	.	1ff
4E	.	.	.
4D	.	.	.
=91	=91	=91	=91
1C	2c]	2r	2ee
.	4B-y	2g	2cc
.	4A	.	.
1r	1G	1b-y	1dd
=92	=92	=92	=92
0r	0r	2a	2cc
.	.	2f	2.dd
.	.	2.g	.
.	.	.	4cc
.	.	.	4b-y
.	.	4a	4a
=93	=93	=93	=93
0r	2r	1b-y	2g
.	2d	.	1dd
.	1f	1a	.
.	.	.	[2cc
=94	=94	=94	=94
2r	2e	2g	4cc]
.	.	.	4b-y
2F	2c	1f	1a
1B-y	1d	.	.
.	.	4e	2g
.	.	4d	.
=95	=95	=95	=95
2A	2c	2e	1a
2F	2.d	2f	.
[1G	.	2.B-y	2.dd
.	4c	.	.
.	4B-y	.	.
.	4A	4c	4cc
=96	=96	=96	=96
2G]	2G	1d	2b-y
2F	1d	.	2a
1E	.	1G	1g
.	2c#i	.	.
=97	=97	=97	=97
0D	1.d	1r	0f
.	.	[1A	.
.	[2d	.	.
=98	=98	=98	=98
1F	2d]	2A]	1.a
.	2c	2A	.
2F	1c	2.A	.
[2F	.	.	2a
.	.	4B-y	.
=99	=99	=99	=99
2F]	1f	4c	1a
.	.	4A	.
4E	.	1d	.
4D	.	.	.
2.A	2e	.	2r
.	[2f	2c	[2a
4G	.	.	.
=100	=100	=100	=100
2F	4f]	1d	2a]
.	4e	.	.
2G	1d	.	2b-y
1E	.	2r	2.g
.	2c#i	2e	.
.	.	.	4a
=101	=101	=101	=101
2.D	2.d	2f	2b-y
.	.	2f	1a
4E	4c	.	.
2F	2A	2d	.
2G	2B-y	[2e	[2g
=102	=102	=102	=102
1A	1c	2e]	2g]
.	.	4d	2f
.	.	4c	.
1G	1B-y	2e	4g
.	.	.	4a
.	.	[2d	4b-y
.	.	.	4cc
=103	=103	=103	=103
2F	2A	4d]	2dd
.	.	4c	.
2E	2G	1c	2ee
1D	1d	.	1ff
.	.	2BnXi	.
=104	=104	=104	=104
1C	2r	2.c	1ee
.	2G	.	.
.	.	4d	.
1C	1G	1e	2r
.	.	.	2cc
=105	=105	=105	=105
2.F	1.A	2r	1cc
.	.	2f	.
4E	.	.	.
1D	.	1f	2dd
.	4G	.	2dd
.	4F	.	.
=106	=106	=106	=106
1C	1c	2g	2ee
.	.	2g	2ee
1F	2r	2.a	2cc
.	2c	.	[2ff
.	.	4f	.
=107	=107	=107	=107
2r	1c	2g	2ff]
2A	.	1a	2ee
1B-y	2d	.	1dd
.	2d	2g	.
=108	=108	=108	=108
2A	2e	1a	1cc
2.A	2e	.	.
.	2c	1r	1r
4G	.	.	.
2A	[2f	.	.
=109	=109	=109	=109
2B-y	2f]	1g	2r
2c	2e	.	1cc
2F	1d	2f	.
2G	.	2d	2b-y
=110	=110	=110	=110
2C	1c	2e	2g
1F	.	2f	2.a
.	2r	2.c	.
.	.	.	4f
2E	[2c	.	2g
.	.	4e	.
=111	=111	=111	=111
2F	2c]	1d	2a
2G	2B-y	.	4g
.	.	.	4f
2.A	1c	1r	1e
4B-y	.	.	.
=112	=112	=112	=112
2c	2A	0r	0r
1B-y	1d	.	.
2A	2c	.	.
=113	=113	=113	=113
1d	1B-y	2r	1r
.	.	1f	.
2.c	1A	.	2r
.	.	2e	[2cc
4B-y	.	.	.
=114	=114	=114	=114
2A	0r	2f	2cc]
2G	.	2g	2b-y
1F	.	2.a	1cc
.	.	4b-y	.
=115	=115	=115	=115
0r	0r	2cc	2a
.	.	2.b-y	1dd
.	.	4a	.
.	.	[2a	2cc
=116	=116	=116	=116
2r	1r	2a]	1b-y
1G	.	2g	.
.	2r	2a	1a
2F	[2d	2A	.
=117	=117	=117	=117
2G	2d]	2B-y	0r
2A	2c	2c	.
2G	1B-y	1d	.
[2D	.	.	.
=118	=118	=118	=118
4D]	2A	0r	0r
4E	.	.	.
4F	1d	.	.
4D	.	.	.
2E	.	.	.
2F	2c	.	.
=119	=119	=119	=119
1G	1B-y	2r	1r
.	.	1g	.
1D	1A	.	2r
.	.	2f	[2dd
=120	=120	=120	=120
1r	0r	2g	2dd]
.	.	2a	2cc
2r	.	2g	1b-y
2G	.	[2d	.
=121	=121	=121	=121
2F	0r	4d]	2a
.	.	4e	.
2D	.	4f	1dd
.	.	4d	.
2A	.	2e	.
2A	.	2f	2cc
=122	=122	=122	=122
2.G	2r	1g	1b-y
.	2d	.	.
4F	.	.	.
2D	2d	1f	1a
[2d	2d	.	.
=123	=123	=123	=123
2d]	2e	0r	1r
2c	2e	.	.
1B-y	2d	.	2r
.	[2f	.	[2dd
=124	=124	=124	=124
1A	2f]	2r	2dd]
.	2e	2a	2cc
1r	2d	1a	2ff
.	2c	.	[2ee
=125	=125	=125	=125
2r	2.g	1b-y	4ee]
.	.	.	4dd
2G	.	.	1dd
.	4f	.	.
1A	2e	1a	.
.	2e	.	2cc#i
=126	=126	=126	=126
1B-y	2d	2f	1dd
.	2d	2g	.
1A	2f	1a	[1cc
.	[2e	.	.
=127	=127	=127	=127
2F	4e]	2r	2cc]
.	4d	.	.
2G	1d	2d	2b-y
1A	.	2f	2.a
.	2c#i	[2e	.
.	.	.	4g
=128	=128	=128	=128
2D	1d	4e]	2f
.	.	4d	.
2F	.	1d	2.a
1E	1G	.	.
.	.	.	4g
.	.	2c	[2g
=129	=129	=129	=129
1D	2r	2B-y	2g]
.	2d	2A	2f
1G	1d	2.B-y	1g
.	.	4A	.
=130	=130	=130	=130
1C	1e	2G	2r
.	.	1g	2.cc
[1G	1d	.	.
.	.	.	4b-y
.	.	4f	[2b-y
.	.	4e	.
=131	=131	=131	=131
2G]	2B-y	2d	2b-]
4F	2c	2e	4a
4E	.	.	4g
4D	1d	1f	2b-y
4E	.	.	.
4F	.	.	[2a
4D	.	.	.
=132	=132	=132	=132
2E	2G	1r	4a]
.	.	.	4g
2G	2B-y	.	1g
1D	1A	2r	.
.	.	2d	2f#i
=133	=133	=133	=133
2r	1G	2d	0g
2G	.	2G	.
2G	2r	2B-y	.
2E	2c	2c	.
=134	=134	=134	=134
2F	2c	2.d	0r
2G	2B-y	.	.
.	.	4e	.
2A	2.c	2f	.
[2c	.	2e	.
.	4d	.	.
=135	=135	=135	=135
4c]	2e	1c	2r
4B-y	.	.	.
4A	2f	.	2cc
4G	.	.	.
2F	1d	2r	2cc
2G	.	2g	2b-y
=136	=136	=136	=136
1A	0r	2g	2.cc
.	.	2f	.
.	.	.	4dd
1r	.	2g	2ee
.	.	2a	2ff
=137	=137	=137	=137
1r	2r	2.b-y	1dd
.	2G	.	.
.	.	8aL	.
.	.	8gJ	.
2r	2A	1f	1r
2D	2B-y	.	.
=138	=138	=138	=138
2E	2c	0r	0r
2F	2.d	.	.
1G	.	.	.
.	4c	.	.
.	2e	.	.
=139	=139	=139	=139
2F	4d	1r	0r
.	4c	.	.
2E	1c	.	.
1D	.	2r	.
.	2BnXi	2d	.
=140	=140	=140	=140
*M3/1	*M3/1	*M3/1	*M3/1
*met(O|3)	*met(O|3)	*met(O|3)	*met(O|3)
1C	0c	1e	1r
1c	.	1e	1g
1F	1r	[1f	1a
=141	=141	=141	=141
1B-y	1d	2f]	1b-y
.	.	2g	.
1A	1e	0a	1cc
1d	1f	.	[1dd
=142	=142	=142	=142
1B-y	1.g	1b-y	2dd]
.	.	.	2cc
1c	.	1g	1ee
.	2e	.	.
1F	1f	1a	2dd
.	.	.	2cc
=143	=143	=143	=143
1A	1c	1f	0cc
0G	0d	0g	.
.	.	.	1bnXi
=144	=144	=144	=144
0.Cl	0.cl	0.el	0.ccl
==	==	==	==
*-	*-	*-	*-
!!!system-decoration: s1,s2,s3,s4
!!!RDF**kern: i = editorial accidental
!!!RDF**kern: l = terminal long
!!!ENC: Maura Sugg
!!!END: 2026/3/27
!!!EED: Benjamin Ory
!!!EEV: 2026/04/22
!!!YEC: Copyright 2026 Irene Holzer, All Rights Reserved
!!!ONB: Translated from MusicXML on 2026/04/22
!!!verovio: header encoded
!!!header-left: Edited by Irene Holzer\n
!!!header-right:
!!!header-center: